X:1
T:Lombok, 87.87.87
T:Lombok, 87.87.87
T:Clara H. Fiske Scott, 1896
T:Public Domain Courtesy of the Cyber Hymnal™
C:Clara H. Fiske Scott, 1896
Z:Public Domain
Z:Courtesy of the Cyber Hymnal™
%%score ( 1 2 ) ( 3 4 )
L:1/8
Q:1/4=97
M:3/4
K:C
V:1 treble 
V:2 treble 
V:3 bass 
V:4 bass 
V:1
 [EG][EG] | [Ec]2 [EG]2 [FA][GB] | [FA]2 [EG]2 [Gc][GB] | [GB][FA] [Ac]3 [FA] | [EG]4 [EG][EG] | %5
 [E^G]2 [EG]2 [EA][EB] | (A>B) [Ec]2 [EB][EA] | [GB][Gc] [GA]2 [^Fd]2 | !fermata![Fd]4 [Fe][Fd] | %9
 [Ec]2 [EG]2 [GB][FA] | [FA]2 [EG]2 [Cc][CE] | [CD][CF] [CE]2 [B,D]2 | !fermata!C4 |] %13
V:2
 x2 | x6 | x6 | x6 | x6 | x6 | E2 x4 | x6 | x6 | x6 | x6 | x6 | C4 |] %13
V:3
 [C,C][C,C] | [C,G,]2 [C,C]2 [C,C][C,C] | [C,C]2 [C,C]2 [E,C][E,C] | [F,C][F,C] [F,C]3 [F,C] | %4
 [C,C]4 [C,C][C,C] | [B,,D]2 [B,,D]2 [E,D][E,D] | (C>D) [A,,E]2 [B,,D][C,C] | %7
 [D,B,][D,A,] [D,D]2 [D,C]2 | !fermata![G,B,]4 [G,,B,][G,,G,] | [C,G,]2 [C,C]2 [C,C][C,C] | %10
 [C,C]2 [C,C]2 [E,G,][E,G,] | [F,A,][D,A,] G,2 [G,,F,]2 | !fermata![C,E,]4 |] %13
V:4
 x2 | x6 | x6 | x6 | x6 | x6 | A,,2 x4 | x6 | x6 | x6 | x6 | x2 G,2 x2 | x4 |] %13

